Numix-GalliumOS/32/devices/audio-input-microphone.svg

<?xml version="1.0" encoding="UTF-8" standalone="no"?>
<svg
   xmlns:dc="http://purl.org/dc/elements/1.1/"
   xmlns:cc="http://creativecommons.org/ns#"
   xmlns:rdf="http://www.w3.org/1999/02/22-rdf-syntax-ns#"
   xmlns:svg="http://www.w3.org/2000/svg"
   xmlns="http://www.w3.org/2000/svg"
   xmlns:sodipodi="http://sodipodi.sourceforge.net/DTD/sodipodi-0.dtd"
   xmlns:inkscape="http://www.inkscape.org/namespaces/inkscape"
   viewBox="0 0 32 32"
   id="svg2"
   version="1.1"
   inkscape:version="0.91 r"
   sodipodi:docname="stock_mic.svg"
   width="32"
   height="32">
  <metadata
     id="metadata26">
    <rdf:RDF>
      <cc:Work
         rdf:about="">
        <dc:format>image/svg+xml</dc:format>
        <dc:type
           rdf:resource="http://purl.org/dc/dcmitype/StillImage" />
        <dc:title />
      </cc:Work>
    </rdf:RDF>
  </metadata>
  <defs
     id="defs24" />
  <sodipodi:namedview
     pagecolor="#ffffff"
     bordercolor="#666666"
     borderopacity="1"
     objecttolerance="10"
     gridtolerance="10"
     guidetolerance="10"
     inkscape:pageopacity="0"
     inkscape:pageshadow="2"
     inkscape:window-width="1920"
     inkscape:window-height="1056"
     id="namedview22"
     showgrid="true"
     inkscape:zoom="11.313708"
     inkscape:cx="11.690383"
     inkscape:cy="14.245367"
     inkscape:window-x="0"
     inkscape:window-y="24"
     inkscape:window-maximized="1"
     inkscape:current-layer="svg2">
    <inkscape:grid
       type="xygrid"
       id="grid4165" />
  </sodipodi:namedview>
  <rect
     style="opacity:1;fill:#d6d6d6;fill-opacity:1;fill-rule:nonzero;stroke:none;stroke-width:0.1;stroke-linecap:butt;stroke-linejoin:miter;stroke-miterlimit:4;stroke-dasharray:none;stroke-dashoffset:0;stroke-opacity:1"
     id="rect4167"
     width="9.999999"
     height="18.5"
     x="11.000001"
     y="3"
     rx="5.75"
     ry="5.75" />
  <path
     id="path4172"
     d="m 21,12 0,1 -3,0 c -0.554,0 -1,-0.223 -1,-0.5 0,-0.277 0.446,-0.5 1,-0.5 l 3,0 z"
     style="opacity:1;fill:#828282;fill-opacity:1;fill-rule:nonzero;stroke:none;stroke-width:1.5;stroke-linecap:round;stroke-linejoin:miter;stroke-miterlimit:4;stroke-dasharray:none;stroke-dashoffset:0;stroke-opacity:1"
     inkscape:connector-curvature="0" />
  <path
     id="path4174"
     d="m 21,10 0,1 -3,0 c -0.554,0 -1,-0.223 -1,-0.5 0,-0.277 0.446,-0.5 1,-0.5 l 3,0 z"
     style="opacity:1;fill:#828282;fill-opacity:1;fill-rule:nonzero;stroke:none;stroke-width:1.5;stroke-linecap:round;stroke-linejoin:miter;stroke-miterlimit:4;stroke-dasharray:none;stroke-dashoffset:0;stroke-opacity:1"
     inkscape:connector-curvature="0" />
  <path
     style="opacity:1;fill:#373737;fill-opacity:1;fill-rule:nonzero;stroke:none;stroke-width:2;stroke-linecap:round;stroke-linejoin:miter;stroke-miterlimit:4;stroke-dasharray:none;stroke-dashoffset:0;stroke-opacity:1"
     inkscape:transform-center-x="-0.0076529108"
     inkscape:transform-center-y="0.20672685"
     d="M 11,16.003213 8,17.25 8.02296,16 Z"
     id="path4171"
     inkscape:connector-curvature="0"
     sodipodi:nodetypes="cccc" />
  <path
     sodipodi:nodetypes="cccc"
     inkscape:connector-curvature="0"
     id="path4186"
     d="M 21,16.003213 24,17.25 23.97704,16 Z"
     inkscape:transform-center-y="0.20672685"
     inkscape:transform-center-x="0.0076528915"
     style="opacity:1;fill:#373737;fill-opacity:1;fill-rule:nonzero;stroke:none;stroke-width:2;stroke-linecap:round;stroke-linejoin:miter;stroke-miterlimit:4;stroke-dasharray:none;stroke-dashoffset:0;stroke-opacity:1" />
  <path
     style="color:#000000;font-style:normal;font-variant:normal;font-weight:normal;font-stretch:normal;font-size:medium;line-height:normal;font-family:sans-serif;text-indent:0;text-align:start;text-decoration:none;text-decoration-line:none;text-decoration-style:solid;text-decoration-color:#000000;letter-spacing:normal;word-spacing:normal;text-transform:none;direction:ltr;block-progression:tb;writing-mode:lr-tb;baseline-shift:baseline;text-anchor:start;white-space:normal;clip-rule:nonzero;display:inline;overflow:visible;visibility:visible;opacity:1;isolation:auto;mix-blend-mode:normal;color-interpolation:sRGB;color-interpolation-filters:linearRGB;solid-color:#000000;solid-opacity:1;fill:#547181;fill-opacity:1;fill-rule:nonzero;stroke:none;stroke-width:2;stroke-linecap:round;stroke-linejoin:miter;stroke-miterlimit:4;stroke-dasharray:none;stroke-dashoffset:0;stroke-opacity:1;color-rendering:auto;image-rendering:auto;shape-rendering:auto;text-rendering:auto;enable-background:accumulate"
     d="m 8.5598192,15.618416 a 0.74293143,0.74293143 0 0 0 -0.73125,0.753013 c 0,2.918322 1.558493,5.618275 4.0857138,7.077455 2.52722,1.459179 5.644208,1.459179 8.171429,0 2.527221,-1.459179 4.085714,-4.159133 4.085714,-7.077455 a 0.74293143,0.74293143 0 1 0 -1.485714,0 c 0,2.389942 -1.273261,4.59556 -3.342858,5.790512 -2.069595,1.194954 -4.616119,1.194954 -6.685714,0 -2.069594,-1.194952 -3.342857,-3.40057 -3.342857,-5.790512 A 0.74293143,0.74293143 0 0 0 8.5598192,15.618416 Z"
     id="path4169"
     inkscape:connector-curvature="0" />
  <path
     style="fill:#547181;fill-opacity:1;fill-rule:evenodd;stroke:none;stroke-width:1px;stroke-linecap:butt;stroke-linejoin:miter;stroke-opacity:1"
     d="M 15.25714,24.394286 C 14.970251,26.545843 13.314938,27.888077 11.542854,29 l 8.914286,0 c -1.772084,-1.111923 -3.427395,-2.454157 -3.714286,-4.605714 z"
     id="path4176"
     inkscape:connector-curvature="0"
     sodipodi:nodetypes="ccccc" />
  <path
     style="opacity:1;fill:#547181;fill-opacity:1;fill-rule:nonzero;stroke:none;stroke-width:0.1;stroke-linecap:butt;stroke-linejoin:miter;stroke-miterlimit:4;stroke-dasharray:none;stroke-dashoffset:0;stroke-opacity:1"
     d="M 11 15.5 L 11 15.75 C 11 18.9355 13.23 21.5 16 21.5 C 18.77 21.5 21 18.9355 21 15.75 L 21 15.5 L 11 15.5 z "
     id="rect4183" />
  <path
     style="opacity:1;fill:#373737;fill-opacity:1;fill-rule:nonzero;stroke:none;stroke-width:2;stroke-linecap:round;stroke-linejoin:miter;stroke-miterlimit:4;stroke-dasharray:none;stroke-dashoffset:0;stroke-opacity:1"
     d="M 11 15 L 11 15.75 C 11 15.834398 11.008619 15.91651 11.011719 16 L 20.988281 16 C 20.991381 15.91651 21 15.834398 21 15.75 L 21 15 L 11 15 z "
     id="rect4181" />
  <path
     id="path4177"
     d="M 20.953125,8 C 20.9808,8.245878 21,8.4951796 21,8.75 L 21,9 18,9 C 17.446,9 17,8.777 17,8.5 17,8.223 17.446,8 18,8 l 2.953125,0 z"
     style="opacity:1;fill:#828282;fill-opacity:1;fill-rule:nonzero;stroke:none;stroke-width:1.5;stroke-linecap:round;stroke-linejoin:miter;stroke-miterlimit:4;stroke-dasharray:none;stroke-dashoffset:0;stroke-opacity:1"
     inkscape:connector-curvature="0" />
  <path
     style="opacity:0.2;fill:#ffffff;fill-opacity:1;fill-rule:nonzero;stroke:none;stroke-width:0.1;stroke-linecap:butt;stroke-linejoin:miter;stroke-miterlimit:4;stroke-dasharray:none;stroke-dashoffset:0;stroke-opacity:1"
     d="M 17,-0.38115625 17,22.653133 c 0.740918,-0.177489 1.418429,-0.553716 2,-1.072266 L 19,0.68915625 c -0.581571,-0.5185494 -1.259082,-0.8928232 -2,-1.0703125 z"
     id="rect4211"
     inkscape:connector-curvature="0"
     sodipodi:nodetypes="ccccc" />
  <path
     style="opacity:0.2;fill:#ffffff;fill-opacity:1;fill-rule:nonzero;stroke:none;stroke-width:0.1;stroke-linecap:butt;stroke-linejoin:miter;stroke-miterlimit:4;stroke-dasharray:none;stroke-dashoffset:0;stroke-opacity:1"
     d="M 19 22.332031 C 18.36238 22.652906 17.688704 22.870274 17 22.974609 L 17 24.478516 C 17.680989 24.394718 18.35232 24.222531 19 23.966797 L 19 22.332031 z "
     id="path4166" />
  <path
     style="opacity:0.2;fill:#ffffff;fill-opacity:1;fill-rule:nonzero;stroke:none;stroke-width:0.1;stroke-linecap:butt;stroke-linejoin:miter;stroke-miterlimit:4;stroke-dasharray:none;stroke-dashoffset:0;stroke-opacity:1"
     d="M 17 25.380859 L 17 29 L 19 29 L 19 27.972656 C 18.117484 27.262012 17.386073 26.428013 17 25.380859 z "
     id="path4184" />
  <path
     style="opacity:1;fill:#828282;fill-opacity:1;fill-rule:nonzero;stroke:none;stroke-width:1.5;stroke-linecap:round;stroke-linejoin:miter;stroke-miterlimit:4;stroke-dasharray:none;stroke-dashoffset:0;stroke-opacity:1"
     d="M 11 12 L 11 13 L 14 13 C 14.554 13 15 12.777 15 12.5 C 15 12.223 14.554 12 14 12 L 11 12 z "
     id="rect4270" />
  <path
     style="opacity:1;fill:#828282;fill-opacity:1;fill-rule:nonzero;stroke:none;stroke-width:1.5;stroke-linecap:round;stroke-linejoin:miter;stroke-miterlimit:4;stroke-dasharray:none;stroke-dashoffset:0;stroke-opacity:1"
     d="M 11 10 L 11 11 L 14 11 C 14.554 11 15 10.777 15 10.5 C 15 10.223 14.554 10 14 10 L 11 10 z "
     id="rect4272" />
  <path
     style="opacity:1;fill:#828282;fill-opacity:1;fill-rule:nonzero;stroke:none;stroke-width:1.5;stroke-linecap:round;stroke-linejoin:miter;stroke-miterlimit:4;stroke-dasharray:none;stroke-dashoffset:0;stroke-opacity:1"
     d="M 11.046875 8 C 11.0192 8.245878 11 8.4951796 11 8.75 L 11 9 L 14 9 C 14.554 9 15 8.777 15 8.5 C 15 8.223 14.554 8 14 8 L 11.046875 8 z "
     id="rect4274" />
</svg>

<svg xmlns="http://www.w3.org/2000/svg" viewBox="0 0 32 32">
 <rect width="10" height="18.5" x="11" y="3" rx="5" ry="5.75" style="fill:#d6d6d6;opacity:1;fill-opacity:1;stroke:none;fill-rule:nonzero"/>
 <path d="m 21 12 0 1 -3 0 c -0.554 0 -1 -0.223 -1 -0.5 0 -0.277 0.446 -0.5 1 -0.5 l 3 0 z" style="fill:#828282;opacity:1;fill-opacity:1;stroke:none;fill-rule:nonzero"/>
 <path d="m 21 10 0 1 -3 0 c -0.554 0 -1 -0.223 -1 -0.5 0 -0.277 0.446 -0.5 1 -0.5 l 3 0 z" style="fill:#828282;opacity:1;fill-opacity:1;stroke:none;fill-rule:nonzero"/>
 <path d="m 11 16 -3 1.247 0.023 -1.25" style="fill:#373737;opacity:1;fill-opacity:1;stroke:none;fill-rule:nonzero"/>
 <path d="m 21 16 3 1.247 -0.023 -1.25" style="fill:#373737;opacity:1;fill-opacity:1;stroke:none;fill-rule:nonzero"/>
 <path d="m 8.56 15.618 a 0.743 0.743 0 0 0 -0.731 0.753 c 0 2.918 1.558 5.618 4.086 7.077 2.527 1.459 5.644 1.459 8.171 0 2.527 -1.459 4.086 -4.159 4.086 -7.077 a 0.743 0.743 0 1 0 -1.486 0 c 0 2.39 -1.273 4.596 -3.343 5.791 -2.07 1.195 -4.616 1.195 -6.686 0 -2.07 -1.195 -3.343 -3.401 -3.343 -5.791 A 0.743 0.743 0 0 0 8.56 15.618" mix-blend-mode="normal" isolation="auto" white-space="normal" solid-opacity="1" solid-color="#000000" style="visibility:visible;shape-rendering:auto;color-interpolation-filters:linearRGB;fill:#547181;opacity:1;image-rendering:auto;fill-opacity:1;stroke:none;display:inline;color:#000;fill-rule:nonzero;color-rendering:auto;color-interpolation:sRGB"/>
 <path d="m 15.257 24.394 c -0.287 2.152 -1.942 3.494 -3.714 4.606 l 8.914 0 c -1.772 -1.112 -3.427 -2.454 -3.714 -4.606 z" style="fill:#547181;fill-opacity:1;stroke:none;fill-rule:evenodd"/>
 <path d="m 11 15.5 l 0 0.25 c 0 3.186 2.23 5.75 5 5.75 c 2.77 0 5 -2.564 5 -5.75 l 0 -0.25 l -10 0 z" style="fill:#547181;opacity:1;fill-opacity:1;stroke:none;fill-rule:nonzero"/>
 <path d="m 11 15 l 0 0.75 c 0 0.084 0.009 0.167 0.012 0.25 l 9.977 0 c 0.003 -0.083 0.012 -0.166 0.012 -0.25 l 0 -0.75 l -10 0 z" style="fill:#373737;opacity:1;fill-opacity:1;stroke:none;fill-rule:nonzero"/>
 <path d="m 20.953 8 c 0.028 0.246 0.047 0.495 0.047 0.75 l 0 0.25 -3 0 c -0.554 0 -1 -0.223 -1 -0.5 0 -0.277 0.446 -0.5 1 -0.5 l 2.953 0 z" style="fill:#828282;opacity:1;fill-opacity:1;stroke:none;fill-rule:nonzero"/>
 <path d="m 17 -0.381 0 23.03 c 0.741 -0.177 1.418 -0.554 2 -1.072 l 0 -20.892 c -0.582 -0.519 -1.259 -0.893 -2 -1.07 z" style="fill:#fff;opacity:0.2;fill-opacity:1;stroke:none;fill-rule:nonzero"/>
 <path d="m 19 22.332 c -0.638 0.321 -1.311 0.538 -2 0.643 l 0 1.504 c 0.681 -0.084 1.352 -0.256 2 -0.512 l 0 -1.635 z" style="fill:#fff;opacity:0.2;fill-opacity:1;stroke:none;fill-rule:nonzero"/>
 <path d="m 17 25.381 l 0 3.619 l 2 0 l 0 -1.027 c -0.883 -0.711 -1.614 -1.545 -2 -2.592 z" style="fill:#fff;opacity:0.2;fill-opacity:1;stroke:none;fill-rule:nonzero"/>
 <path d="m 11 12 l 0 1 l 3 0 c 0.554 0 1 -0.223 1 -0.5 c 0 -0.277 -0.446 -0.5 -1 -0.5 l -3 0 z" style="fill:#828282;opacity:1;fill-opacity:1;stroke:none;fill-rule:nonzero"/>
 <path d="m 11 10 l 0 1 l 3 0 c 0.554 0 1 -0.223 1 -0.5 c 0 -0.277 -0.446 -0.5 -1 -0.5 l -3 0 z" style="fill:#828282;opacity:1;fill-opacity:1;stroke:none;fill-rule:nonzero"/>
 <path d="m 11.05 8 c -0.028 0.246 -0.047 0.495 -0.047 0.75 l 0 0.25 l 3 0 c 0.554 0 1 -0.223 1 -0.5 c 0 -0.277 -0.446 -0.5 -1 -0.5 l -2.953 0 z" style="fill:#828282;opacity:1;fill-opacity:1;stroke:none;fill-rule:nonzero"/>
</svg>
